X: 31998
T: Peel Bothy
R: reel
M: 4/4
K: Dmajor
Adde ~f3a|~g3e cdef|Adde ~f3a|geag fddc|
~d3e ~f3a|~g3e Acec|Adde ~f3a|geag fddc||
~B2GB ~A2FA|~B2GA Bcd2|~B2GB ~A2FA|EFGA BA(3FED|
~B2GB ~A2FA|~B2GA Bcd2|EFGA B2EF|GABc dABc||

